images/icon-size.svg

<svg width="18" height="18" viewBox="0 0 18 18" fill="none" xmlns="http://www.w3.org/2000/svg">
<path d="M14 0H2C0.89 0 0 0.9 0 2V16C0 17.1 0.89 18 2 18H16C17.1 18 18 17.1 18 16V4L14 0ZM9 16C7.34 16 6 14.66 6 13C6 11.34 7.34 10 9 10C10.66 10 12 11.34 12 13C12 14.66 10.66 16 9 16ZM12 6H2V2H12V6Z" fill="#26A37A"/>
</svg>

<svg width="18" height="18" fill="none" xmlns="http://www.w3.org/2000/svg"><path d="M14 0H2a2 2 0 00-2 2v14a2 2 0 002 2h14c1.1 0 2-.9 2-2V4l-4-4zM9 16c-1.66 0-3-1.34-3-3s1.34-3 3-3 3 1.34 3 3-1.34 3-3 3zm3-10H2V2h10v4z" fill="#26A37A"/></svg>
